_src/static/img/sprite/logo.svg

<svg width="120" height="32" viewBox="0 0 120 32" fill="none" xmlns="http://www.w3.org/2000/svg">
<path d="M0.28 31V1.8H6.84V25.24H18.28V31H0.28ZM35.9988 31.76C33.3588 31.76 31.0521 31.3067 29.0788 30.4C27.1321 29.4667 25.5188 28.2533 24.2388 26.76C22.9588 25.24 21.9988 23.6133 21.3587 21.88C20.7454 20.12 20.4388 18.4133 20.4388 16.76V15.88C20.4388 14.0667 20.7588 12.28 21.3988 10.52C22.0654 8.76 23.0521 7.16 24.3588 5.72C25.6654 4.25333 27.2921 3.09333 29.2388 2.24C31.1854 1.36 33.4388 0.919999 35.9988 0.919999C38.5588 0.919999 40.8121 1.36 42.7588 2.24C44.7054 3.09333 46.3321 4.25333 47.6388 5.72C48.9454 7.16 49.9321 8.76 50.5988 10.52C51.2654 12.28 51.5988 14.0667 51.5988 15.88V16.76C51.5988 18.4133 51.2788 20.12 50.6388 21.88C49.9988 23.6133 49.0388 25.24 47.7588 26.76C46.4788 28.2533 44.8521 29.4667 42.8788 30.4C40.9321 31.3067 38.6388 31.76 35.9988 31.76ZM35.9988 25.64C37.8388 25.64 39.4254 25.2267 40.7587 24.4C42.1188 23.5733 43.1588 22.4533 43.8788 21.04C44.5988 19.6267 44.9588 18.0667 44.9588 16.36C44.9588 14.5467 44.5854 12.9467 43.8388 11.56C43.1188 10.1467 42.0921 9.04 40.7587 8.24C39.4254 7.44 37.8388 7.04 35.9988 7.04C34.1588 7.04 32.5721 7.44 31.2388 8.24C29.9054 9.04 28.8788 10.1467 28.1588 11.56C27.4388 12.9467 27.0788 14.5467 27.0788 16.36C27.0788 18.0667 27.4388 19.6267 28.1588 21.04C28.8788 22.4533 29.9054 23.5733 31.2388 24.4C32.5721 25.2267 34.1588 25.64 35.9988 25.64ZM70.4091 31.76C67.7957 31.76 65.5157 31.3333 63.5691 30.48C61.6224 29.6 60.0091 28.4267 58.7291 26.96C57.4757 25.4933 56.5424 23.88 55.9291 22.12C55.3157 20.3333 55.0091 18.5333 55.0091 16.72V15.84C55.0091 14 55.3157 12.2 55.9291 10.44C56.5424 8.68 57.4624 7.08 58.6891 5.64C59.9424 4.2 61.4891 3.05333 63.3291 2.2C65.1957 1.34667 67.3424 0.919999 69.7691 0.919999C72.3824 0.919999 74.7024 1.41333 76.7291 2.4C78.7557 3.38667 80.3824 4.74667 81.6091 6.48C82.8357 8.18667 83.5557 10.16 83.7691 12.4H77.2091C76.9424 10.8 76.1291 9.50667 74.7691 8.52C73.4091 7.53333 71.7424 7.04 69.7691 7.04C68.0624 7.04 66.5957 7.44 65.3691 8.24C64.1691 9.01333 63.2491 10.1067 62.6091 11.52C61.9691 12.9067 61.6491 14.5067 61.6491 16.32C61.6491 19.1733 62.4091 21.4667 63.9291 23.2C65.4757 24.9333 67.6357 25.8 70.4091 25.8C71.9024 25.8 73.2357 25.5467 74.4091 25.04C75.5824 24.5067 76.5157 23.8133 77.2091 22.96V20.52H69.5691V15.8H85.6491V20.52H83.2491V25.48C81.9957 27.5067 80.2624 29.0667 78.0491 30.16C75.8357 31.2267 73.2891 31.76 70.4091 31.76ZM103.811 31.76C101.171 31.76 98.8646 31.3067 96.8913 30.4C94.9446 29.4667 93.3313 28.2533 92.0513 26.76C90.7713 25.24 89.8113 23.6133 89.1712 21.88C88.5579 20.12 88.2513 18.4133 88.2513 16.76V15.88C88.2513 14.0667 88.5713 12.28 89.2113 10.52C89.8779 8.76 90.8646 7.16 92.1713 5.72C93.4779 4.25333 95.1046 3.09333 97.0513 2.24C98.9979 1.36 101.251 0.919999 103.811 0.919999C106.371 0.919999 108.625 1.36 110.571 2.24C112.518 3.09333 114.145 4.25333 115.451 5.72C116.758 7.16 117.745 8.76 118.411 10.52C119.078 12.28 119.411 14.0667 119.411 15.88V16.76C119.411 18.4133 119.091 20.12 118.451 21.88C117.811 23.6133 116.851 25.24 115.571 26.76C114.291 28.2533 112.665 29.4667 110.691 30.4C108.745 31.3067 106.451 31.76 103.811 31.76ZM103.811 25.64C105.651 25.64 107.238 25.2267 108.571 24.4C109.931 23.5733 110.971 22.4533 111.691 21.04C112.411 19.6267 112.771 18.0667 112.771 16.36C112.771 14.5467 112.398 12.9467 111.651 11.56C110.931 10.1467 109.905 9.04 108.571 8.24C107.238 7.44 105.651 7.04 103.811 7.04C101.971 7.04 100.385 7.44 99.0513 8.24C97.7179 9.04 96.6913 10.1467 95.9713 11.56C95.2513 12.9467 94.8913 14.5467 94.8913 16.36C94.8913 18.0667 95.2513 19.6267 95.9713 21.04C96.6913 22.4533 97.7179 23.5733 99.0513 24.4C100.385 25.2267 101.971 25.64 103.811 25.64Z" fill="white"/>
</svg>

<svg width="120" height="32" fill="none" xmlns="http://www.w3.org/2000/svg"><path d="M.28 31V1.8h6.56v23.44h11.44V31h-18zm35.719.76c-2.64 0-4.947-.453-6.92-1.36-1.947-.933-3.56-2.147-4.84-3.64-1.28-1.52-2.24-3.147-2.88-4.88-.614-1.76-.92-3.467-.92-5.12v-.88c0-1.813.32-3.6.96-5.36a15.004 15.004 0 012.96-4.8c1.306-1.467 2.933-2.627 4.88-3.48 1.946-.88 4.2-1.32 6.76-1.32 2.56 0 4.813.44 6.76 1.32 1.946.853 3.573 2.013 4.88 3.48a15.008 15.008 0 012.96 4.8c.666 1.76 1 3.547 1 5.36v.88c0 1.653-.32 3.36-.96 5.12-.64 1.733-1.6 3.36-2.88 4.88-1.28 1.493-2.907 2.707-4.88 3.64-1.947.907-4.24 1.36-6.88 1.36zm0-6.12c1.84 0 3.426-.413 4.76-1.24a8.235 8.235 0 003.12-3.36c.72-1.413 1.08-2.973 1.08-4.68 0-1.813-.374-3.413-1.12-4.8-.72-1.413-1.747-2.52-3.08-3.32-1.334-.8-2.92-1.2-4.76-1.2-1.84 0-3.427.4-4.76 1.2-1.334.8-2.36 1.907-3.08 3.32-.72 1.387-1.08 2.987-1.08 4.8 0 1.707.36 3.267 1.08 4.68a8.32 8.32 0 003.08 3.36c1.333.827 2.92 1.24 4.76 1.24zm34.41 6.12c-2.613 0-4.893-.427-6.84-1.28-1.947-.88-3.56-2.053-4.84-3.52a14.999 14.999 0 01-2.8-4.84 16.532 16.532 0 01-.92-5.4v-.88c0-1.84.307-3.64.92-5.4a14.913 14.913 0 012.76-4.8c1.253-1.44 2.8-2.587 4.64-3.44 1.867-.853 4.013-1.28 6.44-1.28 2.613 0 4.933.493 6.96 1.48s3.653 2.347 4.88 4.08c1.227 1.707 1.947 3.68 2.16 5.92h-6.56c-.267-1.6-1.08-2.893-2.44-3.88-1.36-.987-3.027-1.48-5-1.48-1.707 0-3.173.4-4.4 1.2-1.2.773-2.12 1.867-2.76 3.28-.64 1.387-.96 2.987-.96 4.8 0 2.853.76 5.147 2.28 6.88 1.547 1.733 3.707 2.6 6.48 2.6 1.493 0 2.827-.253 4-.76 1.173-.533 2.107-1.227 2.8-2.08v-2.44h-7.64V15.8h16.08v4.72h-2.4v4.96c-1.253 2.027-2.987 3.587-5.2 4.68-2.213 1.067-4.76 1.6-7.64 1.6zm33.402 0c-2.64 0-4.946-.453-6.92-1.36-1.946-.933-3.56-2.147-4.84-3.64-1.28-1.52-2.24-3.147-2.88-4.88-.613-1.76-.92-3.467-.92-5.12v-.88c0-1.813.32-3.6.96-5.36a15.004 15.004 0 012.96-4.8c1.307-1.467 2.934-2.627 4.88-3.48 1.947-.88 4.2-1.32 6.76-1.32 2.56 0 4.814.44 6.76 1.32 1.947.853 3.574 2.013 4.88 3.48a14.988 14.988 0 012.96 4.8c.667 1.76 1 3.547 1 5.36v.88c0 1.653-.32 3.36-.96 5.12-.64 1.733-1.6 3.36-2.88 4.88-1.28 1.493-2.906 2.707-4.88 3.64-1.946.907-4.24 1.36-6.88 1.36zm0-6.12c1.84 0 3.427-.413 4.76-1.24a8.235 8.235 0 003.12-3.36c.72-1.413 1.08-2.973 1.08-4.68 0-1.813-.373-3.413-1.12-4.8-.72-1.413-1.746-2.52-3.08-3.32-1.333-.8-2.92-1.2-4.76-1.2-1.84 0-3.426.4-4.76 1.2-1.333.8-2.36 1.907-3.08 3.32-.72 1.387-1.08 2.987-1.08 4.8 0 1.707.36 3.267 1.08 4.68a8.32 8.32 0 003.08 3.36c1.334.827 2.92 1.24 4.76 1.24z" fill="#fff"/></svg>
